places/scalable/folder-blue-development.svg

<svg xmlns="http://www.w3.org/2000/svg" style="isolation:isolate" width="256" height="256"><path d="M53.039 21C16.724 21 13 23.055 13 59.371v52.167h230V79.563c0-36.316-3.724-42.102-40.039-42.102h-89.336L97.198 21H53.039z" fill="#1463A5"/><path d="M53.039 70.384C16.722 70.384 13 74.114 13 110.429v84.524C13 231.269 16.722 235 53.039 235h149.922c36.317 0 40.039-3.731 40.039-40.047V93.969c0-36.316-3.722-40.047-40.039-40.047H119.53l-16.438 16.462H53.039z" fill="#37A6E6"/><linearGradient id="a" y1=".5" x2="0" y2="-.5" gradientTransform="matrix(230 0 0 181.078 13 53.922)" gradientUnits="userSpaceOnUse"><stop offset="0%" stop-opacity=".07" stop-color="#fff"/><stop offset="67.282%" stop-opacity="0" stop-color="#fcefe8"/></linearGradient><path d="M53.039 70.384C16.722 70.384 13 74.114 13 110.429v84.524C13 231.269 16.722 235 53.039 235h149.922c36.317 0 40.039-3.731 40.039-40.047V93.969c0-36.316-3.722-40.047-40.039-40.047H119.53l-16.438 16.462H53.039z" fill="url(#a)"/><g opacity=".4"><radialGradient id="b" fx=".5" fy=".136" cx=".5" cy=".5" r=".272" gradientTransform="matrix(230 0 0 60.62 13 21)" gradientUnits="userSpaceOnUse"><stop offset="0%" stop-color="#fff"/><stop offset="100%" stop-opacity=".204" stop-color="#fff"/></radialGradient><path d="M53.039 21C16.724 21 13 23.055 13 59.371v2.059c0-36.316 3.724-38.373 40.039-38.373h44.159l16.427 16.461h89.336c36.315 0 40.039 5.786 40.039 42.102v-2.057c0-36.316-3.724-42.102-40.039-42.102h-89.336L97.198 21H53.039z" fill="url(#b)"/></g><g opacity=".4"><radialGradient id="c" fx=".482" fy=".211" cx=".5" cy=".5" r=".272" gradientTransform="matrix(230 0 0 58.565 13 53.922)" gradientUnits="userSpaceOnUse"><stop offset="0%" stop-color="#fff"/><stop offset="100%" stop-opacity=".204" stop-color="#fff"/></radialGradient><path d="M119.53 53.922l-16.438 16.462H53.039C16.724 70.384 13 74.112 13 110.427v2.06c0-36.316 3.724-40.046 40.039-40.046h50.053l16.438-16.46h83.431c36.315 0 40.039 3.727 40.039 40.043v-2.057c0-36.316-3.724-40.045-40.039-40.045H119.53z" fill="url(#c)"/></g><path d="M243 167.096l-65.715 65.845h25.676c36.315 0 40.039-3.727 40.039-40.043v-25.802z" fill="#FFF" opacity=".1"/><path d="M13 192.898v2.057C13 231.271 16.724 235 53.039 235h149.922c36.315 0 40.039-3.729 40.039-40.045v-2.057c0 36.316-3.724 40.043-40.039 40.043H53.039c-36.315 0-40.039-3.727-40.039-40.043z" opacity=".2"/><g opacity=".62" fill="#FFF"><path d="M129.253 101.149c-19.244-.537-37.234 9.541-46.86 26.253-14.468 25.132-5.82 57.361 19.275 71.893 25.095 14.532 57.255 5.954 71.715-19.178 14.467-25.132 5.82-57.384-19.275-71.923a52.259 52.259 0 0 0-24.855-7.045zm-1.365 7.488c24.852 0 45 20.195 45 45.107s-20.148 45.107-45 45.107c-24.853 0-45-20.195-45-45.107s20.147-45.107 45-45.107z"/><path d="M137.803 93l-19.74 2.962v10.172a48.649 48.649 0 0 1 19.74.037V93zm-40.388 8.954L82.37 114.772l7.41 8.856a48.662 48.662 0 0 1 15.128-12.713l-7.493-8.961zm60.96.097l-7.447 8.894c.428.219.853.445 1.275.677a48.69 48.69 0 0 1 13.837 12.058l7.545-9.006-15.21-12.623zM71.3 133.754L68 153.263l11.363 2.007a48.704 48.704 0 0 1 3.412-19.486l-11.475-2.03zm113.145.023l-11.422 2.015a48.73 48.73 0 0 1 3.48 19.478L188 153.241l-3.555-19.464zM81.823 169.066L71.69 174.93l9.975 17.08 10.042-5.811a48.701 48.701 0 0 1-9.884-17.133zm92.257.022a48.686 48.686 0 0 1-4.005 9.134 48.65 48.65 0 0 1-5.805 8.045l10.035 5.803 9.765-17.201-9.99-5.781zm-71.677 26.102l-4.005 11.044 18.6 6.646 3.937-10.864a48.654 48.654 0 0 1-17.273-6.014 49.08 49.08 0 0 1-1.26-.812h.001zm51.105.113a48.67 48.67 0 0 1-18.563 6.751L138.92 213l18.51-6.886-3.922-10.811zM125.248 116.26a37.409 37.409 0 0 0-29.865 18.66c-10.311 18.004-4.154 40.975 13.77 51.377 17.928 10.375 40.853 4.232 51.225-13.728 10.313-17.999 4.154-40.969-13.77-51.362a37.25 37.25 0 0 0-21.36-4.947zm2.64 7.413c16.568 0 30 13.463 30 30.071 0 16.608-13.432 30.072-30 30.072-16.569 0-30-13.464-30-30.072 0-16.608 13.431-30.071 30-30.071z"/></g></svg>

<?xml version="1.0" standalone="no"?><!-- Generator: Gravit.io -->
<svg xmlns="http://www.w3.org/2000/svg" 
  xmlns:xlink="http://www.w3.org/1999/xlink" style="isolation:isolate" viewBox="0 0 256 256" width="256" height="256">
  <switch>
    <g>
      <g id="folder">
        <path d=" M 53.039 21 C 16.724 21 13 23.055 13 59.371 L 13 111.538 L 243 111.538 L 243 79.563 C 243 43.247 239.276 37.461 202.961 37.461 L 113.625 37.461 L 97.198 21 L 53.039 21 Z " id="orange" fill="#1463A5"/>
        <path d=" M 53.039 70.384 C 16.722 70.384 13 74.114 13 110.429 L 13 194.953 C 13 231.269 16.722 235 53.039 235 L 202.961 235 C 239.278 235 243 231.269 243 194.953 L 243 93.969 C 243 57.653 239.278 53.922 202.961 53.922 L 119.53 53.922 L 103.092 70.384 L 53.039 70.384 Z " id="change-color-easy" fill="#37A6E6"/>
        <linearGradient id="_lgradient_6" x1="0" y1="0.5" x2="2.83276944882399e-16" y2="-0.5" gradientTransform="matrix(230,0,0,181.078,13,53.922)" gradientUnits="userSpaceOnUse">
          <stop offset="0%" stop-opacity="0.07" style="stop-color:rgb(255,255,255)"/>
          <stop offset="67.28219512106674%" stop-opacity="0" style="stop-color:rgb(252,239,232)"/>
        </linearGradient>
        <path d=" M 53.039 70.384 C 16.722 70.384 13 74.114 13 110.429 L 13 194.953 C 13 231.269 16.722 235 53.039 235 L 202.961 235 C 239.278 235 243 231.269 243 194.953 L 243 93.969 C 243 57.653 239.278 53.922 202.961 53.922 L 119.53 53.922 L 103.092 70.384 L 53.039 70.384 Z " id="gradient white" fill="url(#_lgradient_6)"/>
        <g opacity="0.4">
          <radialGradient id="_rgradient_11" fx="0.5000000213726793" fy="0.13577386516315215" cx="0.5" cy="0.5" r="0.27154159375000003" gradientTransform="matrix(230,0,0,60.62,13,21)" gradientUnits="userSpaceOnUse">
            <stop offset="0%" stop-opacity="1" style="stop-color:rgb(255,255,255)"/>
            <stop offset="100%" stop-opacity="0.20392157" style="stop-color:rgb(255,255,255)"/>
          </radialGradient>
          <path d=" M 53.039 21 C 16.724 21 13 23.055 13 59.371 L 13 61.43 C 13 25.114 16.724 23.057 53.039 23.057 L 97.198 23.057 L 113.625 39.518 L 202.961 39.518 C 239.276 39.518 243 45.304 243 81.62 L 243 79.563 C 243 43.247 239.276 37.461 202.961 37.461 L 113.625 37.461 L 97.198 21 L 53.039 21 Z " id="white" fill="url(#_rgradient_11)"/>
        </g>
        <g opacity="0.4">
          <radialGradient id="_rgradient_12" fx="0.48214287810452355" fy="0.2108154047287485" cx="0.5" cy="0.5" r="0.27154159375" gradientTransform="matrix(230,0,0,58.565,13,53.922)" gradientUnits="userSpaceOnUse">
            <stop offset="0%" stop-opacity="1" style="stop-color:rgb(255,255,255)"/>
            <stop offset="100%" stop-opacity="0.20392157" style="stop-color:rgb(255,255,255)"/>
          </radialGradient>
          <path d=" M 119.53 53.922 L 103.092 70.384 L 53.039 70.384 C 16.724 70.384 13 74.112 13 110.427 L 13 112.487 C 13 76.171 16.724 72.441 53.039 72.441 L 103.092 72.441 L 119.53 55.981 L 202.961 55.981 C 239.276 55.981 243 59.708 243 96.024 L 243 93.967 C 243 57.651 239.276 53.922 202.961 53.922 L 119.53 53.922 Z " id="white" fill="url(#_rgradient_12)"/>
        </g>
        <g opacity="0.1">
          <path d=" M 243 167.096 L 177.285 232.941 L 202.961 232.941 C 239.276 232.941 243 229.214 243 192.898 L 243 167.096 Z " id="white" fill="rgb(255,255,255)"/>
        </g>
        <g opacity="0.2">
          <path d=" M 13 192.898 L 13 194.955 C 13 231.271 16.724 235 53.039 235 L 202.961 235 C 239.276 235 243 231.271 243 194.955 L 243 192.898 C 243 229.214 239.276 232.941 202.961 232.941 L 53.039 232.941 C 16.724 232.941 13 229.214 13 192.898 Z " id="dark" fill="rgb(0,0,0)"/>
        </g>
      </g>
      <g id="settings" style="opacity:0.62;">
        <path d=" M 129.253 101.149 C 110.009 100.612 92.019 110.69 82.393 127.402 C 67.925 152.534 76.573 184.763 101.668 199.295 C 126.763 213.827 158.923 205.249 173.383 180.117 C 187.85 154.985 179.203 122.733 154.108 108.194 C 146.54 103.801 137.994 101.38 129.253 101.149 L 129.253 101.149 Z  M 127.888 108.637 C 152.74 108.637 172.888 128.832 172.888 153.744 C 172.888 178.656 152.74 198.851 127.888 198.851 C 103.035 198.851 82.888 178.656 82.888 153.744 C 82.888 128.832 103.035 108.637 127.888 108.637 Z " id="Compound Path" fill="#FFFFFF"/>
        <path d=" M 137.803 93 L 118.063 95.962 L 118.063 106.134 C 124.576 104.797 131.294 104.81 137.803 106.171 L 137.803 93.008 L 137.803 93 Z  M 97.415 101.954 L 82.37 114.772 L 89.78 123.628 C 93.901 118.4 99.049 114.073 104.908 110.915 L 97.415 101.954 Z  M 158.375 102.051 L 150.928 110.945 C 151.356 111.164 151.781 111.39 152.203 111.622 C 157.538 114.727 162.233 118.82 166.04 123.68 L 173.585 114.674 L 158.375 102.051 Z  M 71.3 133.754 L 68 153.263 L 79.363 155.27 C 79.155 148.61 80.317 141.977 82.775 135.784 L 71.3 133.754 Z  M 184.445 133.777 L 173.023 135.792 C 175.503 141.978 176.687 148.608 176.503 155.27 L 188 153.241 L 184.445 133.777 Z  M 81.823 169.066 L 71.69 174.93 L 81.665 192.01 L 91.707 186.199 C 87.275 181.224 83.911 175.393 81.823 169.066 L 81.823 169.066 Z  M 174.08 169.088 C 173.061 172.262 171.719 175.323 170.075 178.222 C 168.419 181.095 166.474 183.79 164.27 186.267 L 174.305 192.07 L 184.07 174.869 L 174.08 169.088 Z  M 102.403 195.19 L 98.398 206.234 L 116.998 212.88 L 120.935 202.016 C 114.849 201.121 108.988 199.081 103.662 196.002 C 103.238 195.738 102.818 195.467 102.402 195.19 L 102.403 195.19 Z  M 153.508 195.303 C 147.846 198.799 141.529 201.096 134.945 202.054 L 138.92 213 L 157.43 206.114 L 153.508 195.303 Z " id="Compound Path" fill="#FFFFFF"/>
        <path d=" M 125.248 116.26 C 112.814 117.107 101.616 124.103 95.383 134.92 C 85.072 152.924 91.229 175.895 109.153 186.297 C 127.081 196.672 150.006 190.529 160.378 172.569 C 170.691 154.57 164.532 131.6 146.608 121.207 C 140.142 117.452 132.701 115.728 125.248 116.26 Z  M 127.888 123.673 C 144.456 123.673 157.888 137.136 157.888 153.744 C 157.888 170.352 144.456 183.816 127.888 183.816 C 111.319 183.816 97.888 170.352 97.888 153.744 C 97.888 137.136 111.319 123.673 127.888 123.673 Z " id="Compound Path" fill="#FFFFFF"/>
      </g>
    </g>
  </switch>
</svg>
